svg/table_chair.svg

<svg xmlns="http://www.w3.org/2000/svg" viewBox="0 0 24 24"><path d="M12 22H6a2 2 0 0 1 2-2V8H2V5h14v3h-6v12a2 2 0 0 1 2 2M22 2v20h-2v-7h-5v7h-2v-8a2 2 0 0 1 2-2h5V2Z"/></svg>

<?xml version="1.0" encoding="UTF-8"?><!DOCTYPE svg PUBLIC "-//W3C//DTD SVG 1.1//EN" "http://www.w3.org/Graphics/SVG/1.1/DTD/svg11.dtd"><svg xmlns="http://www.w3.org/2000/svg" xmlns:xlink="http://www.w3.org/1999/xlink" version="1.1" id="mdi-table-chair" width="24" height="24" viewBox="0 0 24 24"><path d="M12 22H6A2 2 0 0 1 8 20V8H2V5H16V8H10V20A2 2 0 0 1 12 22M22 2V22H20V15H15V22H13V14A2 2 0 0 1 15 12H20V2Z" /></svg>
